X:78
T:Larid
A:Bretagne
O:France
M:2/2
L:1/4
K:G
E2B2|AcB2|A>BAF|1GAB2:|2GFE2|
|:E2G2|GEF2|1FAAF|GAB2:|2F>GAB|GFE2|
